X:1
T:Domine Deus meus
T:Domine Deus meus
T:Orlando di Lasso
T:Source : Mahnum opus musicum(1604)---München---First print A.Berg---1575. Editor : André Vierendeels (08/04/15).
T:Notes : Original clefs  : G2, C3, F3 Editorial accidentals above the staff Original note values have been halved Square brackets indicate ligatures Music collected by Ferdinando and Rodolpho di Lasso   
C:Orlando di Lasso
%%score [ 1 2 3 ]
L:1/8
Q:1/4=96
M:2/2
K:F
V:1 treble nm="Superius" snm="S"
V:2 treble-8 nm="Tenor" snm="T"
V:3 bass nm="Bassus" snm="B"
V:1
 d6 e2 | fe dc BA c2- | cB AG Bc d2- | dc/B/ c2 F2 GA | BA de f2 B2- | BA AG/F/ B4 | A4 z4 | %7
w: Do- mi-|ne _ _ _ _ _ _|_ _ _ _ _ _ _|* * * * De- us _|_ _ _ _ _ me-||us,|
 z4 z2 d2- | d2 e2 f3 e | dc B2 c2 A2 | BA FG A2 B2 | z2 A4 d2- | d2 e2 f2 d2- | %13
w: Do-|* mi- ne _|_ _ _ De- us|me- * * * * us,|in te|_ spe- ra- *|
"^-natural" dc/B/ c2 z2 F2 | B2 c2 dc BA | G4 A3 G | AB c2 GA Bc | d4 z4 | z4 G3 A | Bc de f2 g2 | %20
w: * * * vi, in|te spe- ra- * * *|||vi,|sal- *|* * * * * vum|
 de fd _e2 d2 | z4 F3 G | AB cd e2 f2- | fe d2 c3 d | cB B3 A/G/ A2 | B4 z2 B2 | A6 G2 | %27
w: me- * * * * fac,|sal- *|* * * * * vum|_ _ _ me _|_ _ _ _ _ _|fac, ex|o- mni-|
 F2 F2 G2 A2- | A2 B2 AF GA | BA d3 c/B/ c2 | F2 f2 c3 d | ef e2 c2 d2- | %32
w: bus per- se- quen|_ ti- bus _ _ _|_ _ _ _ _ _|me et li- *|* * * be- ra|
"^#""^-natural" dc/B/ c2 f2 d2 | A2 A2 F4 | z4 z2 B2 | F3 G AB A2 | ^F2 G3 F/E/ F2 | !fermata!G8 |] %38
w: _ _ _ _ me, et|li- be- ra,|et|li- * * * *|be- ra _ _ _|me.|
V:2
 z8 | d6 e2 | f3 e dc B2 |"^b" e4 d4 | d4 d4 | z2 d4 e2 | f3 e d2 c2- | cB AG F2 f2 | g4 f2 B2 | %9
w: |Do- mi-|ne _ _ _ _|De- us|me- us,|Do- mi-|ne _ _ De-|* * * * * us|me- us, in|
 f2 g2 ag fe | d8 | c4 z2 F2 | B2 c2 de fd | e4 d4 | z2 A2 B2 G2 | cd ec f4 | c4 z2 GA | %17
w: te spe- ra- * * *||vi, in|te spe- ra- * * *|* vi,|in te spe-|ra- * * * *|vi, sal- *|
 Bc de f2 g2 | de fd _e2 dc | d2 B3 A Bc | BG AB c2 F2- | FG AB c2 d2 | c2 F2 z2 Bc | %23
w: * * * * * vum|me _ _ _ _ _ _|_ fac, _ _ _|_ _ _ _ _ sal-|* * * * * vum|me fac, sal- *|
 de fg a2 f2- | fd _e2 c4 |"^b" B2 e2 d4- | d2 c2 c4 | d6 e2 | f6 e2 | f3 e/d/ e4 | d4 z2 f2 | %31
w: * * * * * vum|_ _ _ me|fac, ex o-|* mni- bus|per- se-|quen- ti-|bus _ _ _|me, et|
 c3 d e2 f2 | e4 d4 | z2 f2 c2 d2 | fe/d/ cd _e2 d2 | z2 B2 F3 G | A2 B2 A4 | !fermata!G8 |] %38
w: li- * * be-|ra me,|et li- be-|ra _ _ _ _ _ me,|et li- *|* be- ra|me.|
V:3
 z8 | z8 | z4 G,4- | G,2 A,2 B,3 A, | G,F, B,3 A, G,2 | F,2 D,2 G,4 | D2 D,4 E,2 | %7
w: ||Do-|* mi- ne _|_ _ _ _ _|De- us me-|us, Do mi|
 F,3 G, A,2 B,2- | B,2 C2 D3 C | B,A, G,2 F,4 | z2 B,,2 F,2 G,2 | A,G, F,E, D,3 C,/B,,/ | %12
w: ne _ _ De-|* us me- *|* * * us,|in te spe-|ra- * * * * * *|
 D,2 C,2 z2 D,2 | G,2 A,2 B,3 A, | G,2 F,2 z4 | z4 z2 D,E, | F,G, A,B, C2 D2 | G,A, B,G, A,2 G,A, | %18
w: * vi, in|te spe- ra- *|* vi,|sal- *|* * * * * vum|me _ _ _ _ _ _|
 B,G, A,B, C2 B,A, | G,4 z4 | z4 z2 B,,C, | D,E, F,G, A,2 B,2 | F,G, A,B, CA, D2 | B,4 z4 | %24
w: _ _ _ _ _ _ _|fac,|sal- *|* * * * * vum|me _ _ _ _ _ _|fac,|
"^-natural" z4 F,4 | G,3 A, B,2 G,2 | F,4 z4 |"^#" B,6 C2 | D6 C2 | D3 C/B,/ A,4 | B,4 A,4- | A,8 | %32
w: ex|o- * * mni-|bus|per- se-|quen- ti-|bus _ _ _|_ me,|_|
 z4 z2 B,2 | F,3 G, A,2 B,2 | A,4 G,4 | D4 D,2 D,2 | D,8 | !fermata!G,8 |] %38
w: et|li- * * be-|ra me,|et li- be-|ra|me.|

